images/indikatorenset/4130.svg

<?xml version="1.0" standalone="no"?><!DOCTYPE svg PUBLIC "-//W3C//DTD SVG 1.1//EN" "http://www.w3.org/Graphics/SVG/1.1/DTD/svg11.dtd"><svg xmlns:xlink="http://www.w3.org/1999/xlink" version="1.1" class="highcharts-root" style="font-family:arial;font-size:12px;" xmlns="http://www.w3.org/2000/svg" width="485" height="415"><desc>Created with Highstock 5.0.14</desc><defs><clipPath id="highcharts-kjpfivq-6"><rect x="0" y="0" width="423" height="308" fill="none"></rect></clipPath><clipPath id="highcharts-kjpfivq-7"><rect x="0" y="0" width="423" height="308" fill="none"></rect></clipPath></defs><rect fill="#fbfbfb" class="highcharts-background" x="0" y="0" width="485" height="415" rx="0" ry="0"></rect><rect fill="none" class="highcharts-plot-background" x="52" y="41" width="423" height="308"></rect><g class="highcharts-pane-group"></g><g class="highcharts-grid highcharts-xaxis-grid "><path fill="none" class="highcharts-grid-line" d="M 86.5 41 L 86.5 349" opacity="1"></path><path fill="none" class="highcharts-grid-line" d="M 122.5 41 L 122.5 349" opacity="1"></path><path fill="none" class="highcharts-grid-line" d="M 157.5 41 L 157.5 349" opacity="1"></path><path fill="none" class="highcharts-grid-line" d="M 192.5 41 L 192.5 349" opacity="1"></path><path fill="none" class="highcharts-grid-line" d="M 227.5 41 L 227.5 349" opacity="1"></path><path fill="none" class="highcharts-grid-line" d="M 263.5 41 L 263.5 349" opacity="1"></path><path fill="none" class="highcharts-grid-line" d="M 298.5 41 L 298.5 349" opacity="1"></path><path fill="none" class="highcharts-grid-line" d="M 333.5 41 L 333.5 349" opacity="1"></path><path fill="none" class="highcharts-grid-line" d="M 368.5 41 L 368.5 349" opacity="1"></path><path fill="none" class="highcharts-grid-line" d="M 404.5 41 L 404.5 349" opacity="1"></path><path fill="none" class="highcharts-grid-line" d="M 439.5 41 L 439.5 349" opacity="1"></path><path fill="none" class="highcharts-grid-line" d="M 474.5 41 L 474.5 349" opacity="1"></path><path fill="none" class="highcharts-grid-line" d="M 51.5 41 L 51.5 349" opacity="1"></path></g><g class="highcharts-grid highcharts-yaxis-grid "><path fill="none" stroke="#B9CFD7" stroke-width="0.5" class="highcharts-grid-line" d="M 52 349.25 L 475 349.25" opacity="1"></path><path fill="none" stroke="#B9CFD7" stroke-width="0.5" class="highcharts-grid-line" d="M 52 298.25 L 475 298.25" opacity="1"></path><path fill="none" stroke="#B9CFD7" stroke-width="0.5" class="highcharts-grid-line" d="M 52 246.25 L 475 246.25" opacity="1"></path><path fill="none" stroke="#B9CFD7" stroke-width="0.5" class="highcharts-grid-line" d="M 52 195.25 L 475 195.25" opacity="1"></path><path fill="none" stroke="#B9CFD7" stroke-width="0.5" class="highcharts-grid-line" d="M 52 144.25 L 475 144.25" opacity="1"></path><path fill="none" stroke="#B9CFD7" stroke-width="0.5" class="highcharts-grid-line" d="M 52 92.25 L 475 92.25" opacity="1"></path><path fill="none" stroke="#B9CFD7" stroke-width="0.5" class="highcharts-grid-line" d="M 52 40.75 L 475 40.75" opacity="1"></path></g><rect fill="none" class="highcharts-plot-border" x="52" y="41" width="423" height="308"></rect><g class="highcharts-axis highcharts-xaxis "><path fill="none" class="highcharts-axis-line" stroke="#B9CFD7" stroke-width="0.5" d="M 52 349.25 L 475 349.25"></path></g><g class="highcharts-axis highcharts-yaxis "><path fill="none" class="highcharts-axis-line" d="M 52 41 L 52 349"></path></g><g class="highcharts-series-group"><g class="highcharts-series highcharts-series-0 highcharts-line-series highcharts-color-undefined " transform="translate(52,41) scale(1 1)" clip-path="url(#highcharts-kjpfivq-7)"><path fill="none" d="M 17.625 163.24 L 52.875 158.72266666666667 L 88.125 155.84799999999998 L 123.375 149.89333333333332 L 158.625 147.42933333333332 L 193.875 146.19733333333332 L 229.125 143.73333333333332 L 264.375 141.88533333333334 L 299.625 140.65333333333334 L 334.875 138.80533333333332 L 370.125 136.75199999999998 L 405.375 133.672" class="highcharts-graph" stroke="#008AC3" stroke-width="2" stroke-linejoin="round" stroke-linecap="round"></path></g><g class="highcharts-markers highcharts-series-0 highcharts-line-series highcharts-color-undefined " transform="translate(52,41) scale(1 1)" clip-path="none"><path fill="#008AC3" d="M 21 163 A 4 4 0 1 1 20.99999800000017 162.99600000066667 Z" class="highcharts-point"></path><path fill="#008AC3" d="M 56 159 A 4 4 0 1 1 55.99999800000017 158.99600000066667 Z" class="highcharts-point"></path><path fill="#008AC3" d="M 92 156 A 4 4 0 1 1 91.99999800000016 155.99600000066667 Z" class="highcharts-point"></path><path fill="#008AC3" d="M 127 150 A 4 4 0 1 1 126.99999800000016 149.99600000066667 Z" class="highcharts-point"></path><path fill="#008AC3" d="M 162 147 A 4 4 0 1 1 161.99999800000018 146.99600000066667 Z" class="highcharts-point"></path><path fill="#008AC3" d="M 197 146 A 4 4 0 1 1 196.99999800000018 145.99600000066667 Z" class="highcharts-point"></path><path fill="#008AC3" d="M 233 144 A 4 4 0 1 1 232.99999800000018 143.99600000066667 Z" class="highcharts-point"></path><path fill="#008AC3" d="M 268 142 A 4 4 0 1 1 267.9999980000002 141.99600000066667 Z" class="highcharts-point"></path><path fill="#008AC3" d="M 303 141 A 4 4 0 1 1 302.9999980000002 140.99600000066667 Z" class="highcharts-point"></path><path fill="#008AC3" d="M 338 139 A 4 4 0 1 1 337.9999980000002 138.99600000066667 Z" class="highcharts-point"></path><path fill="#008AC3" d="M 374 137 A 4 4 0 1 1 373.9999980000002 136.99600000066667 Z" class="highcharts-point"></path><path fill="#008AC3" d="M 409 134 A 4 4 0 1 1 408.9999980000002 133.99600000066667 Z" class="highcharts-point"></path></g><g class="highcharts-series highcharts-series-1 highcharts-line-series highcharts-color-undefined " transform="translate(52,41) scale(1 1)" clip-path="url(#highcharts-kjpfivq-7)"><path fill="none" d="M 17.625 84.18666666666667 L 52.875 81.31199999999998 L 88.125 79.464 L 123.375 76.17866666666666 L 158.625 70.01866666666666 L 193.875 78.64266666666666 L 229.125 61.599999999999994 L 264.375 58.93066666666667 L 299.625 57.28799999999998 L 334.875 56.05599999999998 L 370.125 52.15466666666666 L 405.375 48.66399999999999" class="highcharts-graph" stroke="#990300" stroke-width="2" stroke-linejoin="round" stroke-linecap="round"></path></g><g class="highcharts-markers highcharts-series-1 highcharts-line-series highcharts-color-undefined " transform="translate(52,41) scale(1 1)" clip-path="none"><path fill="#990300" d="M 21 84 A 4 4 0 1 1 20.99999800000017 83.99600000066667 Z" class="highcharts-point"></path><path fill="#990300" d="M 56 81 A 4 4 0 1 1 55.99999800000017 80.99600000066667 Z" class="highcharts-point"></path><path fill="#990300" d="M 92 79 A 4 4 0 1 1 91.99999800000016 78.99600000066667 Z" class="highcharts-point"></path><path fill="#990300" d="M 127 76 A 4 4 0 1 1 126.99999800000016 75.99600000066667 Z" class="highcharts-point"></path><path fill="#990300" d="M 162 70 A 4 4 0 1 1 161.99999800000018 69.99600000066667 Z" class="highcharts-point"></path><path fill="#990300" d="M 197 79 A 4 4 0 1 1 196.99999800000018 78.99600000066667 Z" class="highcharts-point"></path><path fill="#990300" d="M 233 62 A 4 4 0 1 1 232.99999800000018 61.99600000066666 Z" class="highcharts-point"></path><path fill="#990300" d="M 268 59 A 4 4 0 1 1 267.9999980000002 58.99600000066666 Z" class="highcharts-point"></path><path fill="#990300" d="M 303 57 A 4 4 0 1 1 302.9999980000002 56.99600000066666 Z" class="highcharts-point"></path><path fill="#990300" d="M 338 56 A 4 4 0 1 1 337.9999980000002 55.99600000066666 Z" class="highcharts-point"></path><path fill="#990300" d="M 374 52 A 4 4 0 1 1 373.9999980000002 51.99600000066666 Z" class="highcharts-point"></path><path fill="#990300" d="M 409 49 A 4 4 0 1 1 408.9999980000002 48.99600000066666 Z" class="highcharts-point"></path></g></g><text x="10" text-anchor="start" class="highcharts-title" style="color:#000000;font-size:14px;font-weight:bold;fill:#000000;" y="21"><tspan>Mietpreisentwicklung der 3-Zimmer-Wohnungen</tspan></text><g class="highcharts-data-labels highcharts-series-0 highcharts-line-series highcharts-color-undefined " visibility="visible" transform="translate(52,41) scale(1 1)"><g class="highcharts-label highcharts-data-label highcharts-data-label-color-undefined " transform="translate(13,153)"><text x="5" style="font-size:11px;font-weight:bold;color:#000000;fill:#000000;" y="16"></text></g><g class="highcharts-label highcharts-data-label highcharts-data-label-color-undefined " transform="translate(48,149)"><text x="5" style="font-size:11px;font-weight:bold;color:#000000;fill:#000000;" y="16"></text></g><g class="highcharts-label highcharts-data-label highcharts-data-label-color-undefined " transform="translate(83,146)"><text x="5" style="font-size:11px;font-weight:bold;color:#000000;fill:#000000;" y="16"></text></g><g class="highcharts-label highcharts-data-label highcharts-data-label-color-undefined " transform="translate(118,140)"><text x="5" style="font-size:11px;font-weight:bold;color:#000000;fill:#000000;" y="16"></text></g><g class="highcharts-label highcharts-data-label highcharts-data-label-color-undefined " transform="translate(154,137)"><text x="5" style="font-size:11px;font-weight:bold;color:#000000;fill:#000000;" y="16"></text></g><g class="highcharts-label highcharts-data-label highcharts-data-label-color-undefined " transform="translate(189,136)"><text x="5" style="font-size:11px;font-weight:bold;color:#000000;fill:#000000;" y="16"></text></g><g class="highcharts-label highcharts-data-label highcharts-data-label-color-undefined " transform="translate(224,134)"><text x="5" style="font-size:11px;font-weight:bold;color:#000000;fill:#000000;" y="16"></text></g><g class="highcharts-label highcharts-data-label highcharts-data-label-color-undefined " transform="translate(259,132)"><text x="5" style="font-size:11px;font-weight:bold;color:#000000;fill:#000000;" y="16"></text></g><g class="highcharts-label highcharts-data-label highcharts-data-label-color-undefined " transform="translate(295,131)"><text x="5" style="font-size:11px;font-weight:bold;color:#000000;fill:#000000;" y="16"></text></g><g class="highcharts-label highcharts-data-label highcharts-data-label-color-undefined " transform="translate(330,129)"><text x="5" style="font-size:11px;font-weight:bold;color:#000000;fill:#000000;" y="16"></text></g><g class="highcharts-label highcharts-data-label highcharts-data-label-color-undefined " transform="translate(365,127)"><text x="5" style="font-size:11px;font-weight:bold;color:#000000;fill:#000000;" y="16"></text></g><g class="highcharts-label highcharts-data-label highcharts-data-label-color-undefined " transform="translate(264,111)"><text x="5" style="font-size:11px;font-weight:bold;color:#000000;fill:#000000;" y="16"><tspan x="5" y="16" class="highcharts-text-outline" fill="#FFFFFF" stroke="#FFFFFF" stroke-width="2px" stroke-linejoin="round" style="">Genossenschaftswohnungen</tspan><tspan x="5" y="16">Genossenschaftswohnungen</tspan></text></g></g><g class="highcharts-data-labels highcharts-series-1 highcharts-line-series highcharts-color-undefined " visibility="visible" transform="translate(52,41) scale(1 1)"><g class="highcharts-label highcharts-data-label highcharts-data-label-color-undefined " transform="translate(13,74)"><text x="5" style="font-size:11px;font-weight:bold;color:#000000;fill:#000000;" y="16"></text></g><g class="highcharts-label highcharts-data-label highcharts-data-label-color-undefined " transform="translate(48,71)"><text x="5" style="font-size:11px;font-weight:bold;color:#000000;fill:#000000;" y="16"></text></g><g class="highcharts-label highcharts-data-label highcharts-data-label-color-undefined " transform="translate(83,69)"><text x="5" style="font-size:11px;font-weight:bold;color:#000000;fill:#000000;" y="16"></text></g><g class="highcharts-label highcharts-data-label highcharts-data-label-color-undefined " transform="translate(118,66)"><text x="5" style="font-size:11px;font-weight:bold;color:#000000;fill:#000000;" y="16"></text></g><g class="highcharts-label highcharts-data-label highcharts-data-label-color-undefined " transform="translate(154,60)"><text x="5" style="font-size:11px;font-weight:bold;color:#000000;fill:#000000;" y="16"></text></g><g class="highcharts-label highcharts-data-label highcharts-data-label-color-undefined " transform="translate(189,69)"><text x="5" style="font-size:11px;font-weight:bold;color:#000000;fill:#000000;" y="16"></text></g><g class="highcharts-label highcharts-data-label highcharts-data-label-color-undefined " transform="translate(224,52)"><text x="5" style="font-size:11px;font-weight:bold;color:#000000;fill:#000000;" y="16"></text></g><g class="highcharts-label highcharts-data-label highcharts-data-label-color-undefined " transform="translate(259,49)"><text x="5" style="font-size:11px;font-weight:bold;color:#000000;fill:#000000;" y="16"></text></g><g class="highcharts-label highcharts-data-label highcharts-data-label-color-undefined " transform="translate(295,47)"><text x="5" style="font-size:11px;font-weight:bold;color:#000000;fill:#000000;" y="16"></text></g><g class="highcharts-label highcharts-data-label highcharts-data-label-color-undefined " transform="translate(330,46)"><text x="5" style="font-size:11px;font-weight:bold;color:#000000;fill:#000000;" y="16"></text></g><g class="highcharts-label highcharts-data-label highcharts-data-label-color-undefined " transform="translate(365,42)"><text x="5" style="font-size:11px;font-weight:bold;color:#000000;fill:#000000;" y="16"></text></g><g class="highcharts-label highcharts-data-label highcharts-data-label-color-undefined " transform="translate(234,26)"><text x="5" style="font-size:11px;font-weight:bold;color:#000000;fill:#000000;" y="16"><tspan x="5" y="16" class="highcharts-text-outline" fill="#FFFFFF" stroke="#FFFFFF" stroke-width="2px" stroke-linejoin="round" style="">Ohne Genossenschaftswohnungen</tspan><tspan x="5" y="16">Ohne Genossenschaftswohnungen</tspan></text></g></g><g class="highcharts-axis-labels highcharts-xaxis-labels "><text x="69.625" style="color:#000000;cursor:default;font-size:11px;fill:#000000;" text-anchor="middle" transform="translate(0,0)" y="368" opacity="1">2005</text><text x="104.875" style="color:#000000;cursor:default;font-size:11px;fill:#000000;" text-anchor="middle" transform="translate(0,0)" y="368" opacity="1">2006</text><text x="140.125" style="color:#000000;cursor:default;font-size:11px;fill:#000000;" text-anchor="middle" transform="translate(0,0)" y="368" opacity="1">2007</text><text x="175.375" style="color:#000000;cursor:default;font-size:11px;fill:#000000;" text-anchor="middle" transform="translate(0,0)" y="368" opacity="1">2008</text><text x="210.625" style="color:#000000;cursor:default;font-size:11px;fill:#000000;" text-anchor="middle" transform="translate(0,0)" y="368" opacity="1">2009</text><text x="245.875" style="color:#000000;cursor:default;font-size:11px;fill:#000000;" text-anchor="middle" transform="translate(0,0)" y="368" opacity="1">2010</text><text x="281.125" style="color:#000000;cursor:default;font-size:11px;fill:#000000;" text-anchor="middle" transform="translate(0,0)" y="368" opacity="1">2011</text><text x="316.375" style="color:#000000;cursor:default;font-size:11px;fill:#000000;" text-anchor="middle" transform="translate(0,0)" y="368" opacity="1">2012</text><text x="351.625" style="color:#000000;cursor:default;font-size:11px;fill:#000000;" text-anchor="middle" transform="translate(0,0)" y="368" opacity="1">2013</text><text x="386.875" style="color:#000000;cursor:default;font-size:11px;fill:#000000;" text-anchor="middle" transform="translate(0,0)" y="368" opacity="1">2014</text><text x="422.125" style="color:#000000;cursor:default;font-size:11px;fill:#000000;" text-anchor="middle" transform="translate(0,0)" y="368" opacity="1">2015</text><text x="457.375" style="color:#000000;cursor:default;font-size:11px;fill:#000000;" text-anchor="middle" transform="translate(0,0)" y="368" opacity="1">2016</text></g><g class="highcharts-axis-labels highcharts-yaxis-labels "><text x="37" style="color:#000000;cursor:default;font-size:11px;fill:#000000;" text-anchor="end" transform="translate(0,0)" y="354" opacity="1"><tspan>0</tspan></text><text x="37" style="color:#000000;cursor:default;font-size:11px;fill:#000000;" text-anchor="end" transform="translate(0,0)" y="302" opacity="1"><tspan>250</tspan></text><text x="37" style="color:#000000;cursor:default;font-size:11px;fill:#000000;" text-anchor="end" transform="translate(0,0)" y="251" opacity="1"><tspan>500</tspan></text><text x="37" style="color:#000000;cursor:default;font-size:11px;fill:#000000;" text-anchor="end" transform="translate(0,0)" y="200" opacity="1"><tspan>750</tspan></text><text x="37" style="color:#000000;cursor:default;font-size:11px;fill:#000000;" text-anchor="end" transform="translate(0,0)" y="148" opacity="1"><tspan>1 000</tspan></text><text x="37" style="color:#000000;cursor:default;font-size:11px;fill:#000000;" text-anchor="end" transform="translate(0,0)" y="97" opacity="1"><tspan>1 250</tspan></text><text x="37" style="color:#000000;cursor:default;font-size:11px;fill:#000000;" text-anchor="end" transform="translate(0,0)" y="46" opacity="1"><tspan>1 500</tspan></text></g><text x="10" class="highcharts-credits" text-anchor="start" style="cursor:default;color:#000000;font-size:10px;fill:#000000;" y="400"><tspan>Quelle: Statistisches Amt Basel-Stadt, Mietpreiserhebung</tspan></text></svg>

<svg class="highcharts-root" xmlns="http://www.w3.org/2000/svg" width="485" height="415" font-family="arial" font-size="12">
    <defs>
        <clipPath id="a">
            <path fill="none" d="M0 0h423v308H0z"/>
        </clipPath>
    </defs>
    <rect fill="#fbfbfb" class="highcharts-background" width="485" height="415" rx="0" ry="0"/>
    <path fill="none" class="highcharts-plot-background" d="M52 41h423v308H52z"/>
    <g class="highcharts-grid highcharts-xaxis-grid">
        <path fill="none" class="highcharts-grid-line" d="M86.5 41v308m36-308v308m35-308v308m35-308v308m35-308v308m36-308v308m35-308v308m35-308v308m35-308v308m36-308v308m35-308v308m35-308v308M51.5 41v308"/>
    </g>
    <g class="highcharts-grid highcharts-yaxis-grid">
        <path fill="none" stroke="#B9CFD7" stroke-width=".5" class="highcharts-grid-line" d="M52 349.25h423m-423-51h423m-423-52h423m-423-51h423m-423-51h423m-423-52h423M52 40.75h423"/>
    </g>
    <path fill="none" class="highcharts-plot-border" d="M52 41h423v308H52z"/>
    <g class="highcharts-axis highcharts-xaxis">
        <path fill="none" class="highcharts-axis-line" stroke="#B9CFD7" stroke-width=".5" d="M52 349.25h423"/>
    </g>
    <g class="highcharts-axis highcharts-yaxis">
        <path fill="none" class="highcharts-axis-line" d="M52 41v308"/>
    </g>
    <g class="highcharts-series-group">
        <g class="highcharts-series highcharts-series-0 highcharts-line-series highcharts-color-undefined" transform="translate(52 41)" clip-path="url(#a)">
            <path fill="none" d="M17.625 163.24l35.25-4.517 35.25-2.875 35.25-5.955 35.25-2.464 35.25-1.232 35.25-2.464 35.25-1.848 35.25-1.232 35.25-1.848 35.25-2.053 35.25-3.08" class="highcharts-graph" stroke="#008AC3" stroke-width="2" stroke-linejoin="round" stroke-linecap="round"/>
        </g>
        <g class="highcharts-markers highcharts-series-0 highcharts-line-series highcharts-color-undefined">
            <path fill="#008AC3" d="M73 204a4 4 0 1 1 0-.004zm35-4a4 4 0 1 1 0-.004zm36-3a4 4 0 1 1 0-.004zm35-6a4 4 0 1 1 0-.004zm35-3a4 4 0 1 1 0-.004zm35-1a4 4 0 1 1 0-.004zm36-2a4 4 0 1 1 0-.004zm35-2a4 4 0 1 1 0-.004zm35-1a4 4 0 1 1 0-.004zm35-2a4 4 0 1 1 0-.004zm36-2a4 4 0 1 1 0-.004zm35-3a4 4 0 1 1 0-.004z" class="highcharts-point"/>
        </g>
        <g class="highcharts-series highcharts-series-1 highcharts-line-series highcharts-color-undefined" transform="translate(52 41)" clip-path="url(#a)">
            <path fill="none" d="M17.625 84.187l35.25-2.875 35.25-1.848 35.25-3.285 35.25-6.16 35.25 8.624 35.25-17.043 35.25-2.67 35.25-1.642 35.25-1.232 35.25-3.901 35.25-3.491" class="highcharts-graph" stroke="#990300" stroke-width="2" stroke-linejoin="round" stroke-linecap="round"/>
        </g>
        <g class="highcharts-markers highcharts-series-1 highcharts-line-series highcharts-color-undefined">
            <path fill="#990300" d="M73 125a4 4 0 1 1 0-.004zm35-3a4 4 0 1 1 0-.004zm36-2a4 4 0 1 1 0-.004zm35-3a4 4 0 1 1 0-.004zm35-6a4 4 0 1 1 0-.004zm35 9a4 4 0 1 1 0-.004zm36-17a4 4 0 1 1 0-.004zm35-3a4 4 0 1 1 0-.004zm35-2a4 4 0 1 1 0-.004zm35-1a4 4 0 1 1 0-.004zm36-4a4 4 0 1 1 0-.004zm35-3a4 4 0 1 1 0-.004z" class="highcharts-point"/>
        </g>
    </g>
    <text x="10" class="highcharts-title" y="21" color="#000" font-size="14" font-weight="700">
        <tspan>Mietpreisentwicklung der 3-Zimmer-Wohnungen</tspan>
    </text>
    <g class="highcharts-data-labels highcharts-series-0 highcharts-line-series highcharts-color-undefined">
        <text x="5" y="16" font-size="11" font-weight="700" color="#000" transform="translate(316 152)" class="highcharts-label highcharts-data-label highcharts-data-label-color-undefined">
            <tspan x="5" y="16" class="highcharts-text-outline" fill="#FFF" stroke="#FFF" stroke-width="2" stroke-linejoin="round">Genossenschaftswohnungen</tspan><tspan x="5" y="16">Genossenschaftswohnungen</tspan>
        </text>
    </g>
    <g class="highcharts-data-labels highcharts-series-1 highcharts-line-series highcharts-color-undefined">
        <text x="5" y="16" font-size="11" font-weight="700" color="#000" transform="translate(286 67)" class="highcharts-label highcharts-data-label highcharts-data-label-color-undefined">
            <tspan x="5" y="16" class="highcharts-text-outline" fill="#FFF" stroke="#FFF" stroke-width="2" stroke-linejoin="round">Ohne Genossenschaftswohnungen</tspan><tspan x="5" y="16">Ohne Genossenschaftswohnungen</tspan>
        </text>
    </g>
    <g class="highcharts-axis-labels highcharts-xaxis-labels" text-anchor="middle" color="#000" cursor="default" font-size="11">
        <text x="69.625" y="368">
            2005
        </text>
        <text x="104.875" y="368">
            2006
        </text>
        <text x="140.125" y="368">
            2007
        </text>
        <text x="175.375" y="368">
            2008
        </text>
        <text x="210.625" y="368">
            2009
        </text>
        <text x="245.875" y="368">
            2010
        </text>
        <text x="281.125" y="368">
            2011
        </text>
        <text x="316.375" y="368">
            2012
        </text>
        <text x="351.625" y="368">
            2013
        </text>
        <text x="386.875" y="368">
            2014
        </text>
        <text x="422.125" y="368">
            2015
        </text>
        <text x="457.375" y="368">
            2016
        </text>
    </g>
    <g class="highcharts-axis-labels highcharts-yaxis-labels" text-anchor="end" color="#000" cursor="default" font-size="11">
        <text x="37" y="354">
            <tspan>0</tspan>
        </text>
        <text x="37" y="302">
            <tspan>250</tspan>
        </text>
        <text x="37" y="251">
            <tspan>500</tspan>
        </text>
        <text x="37" y="200">
            <tspan>750</tspan>
        </text>
        <text x="37" y="148">
            <tspan>1 000</tspan>
        </text>
        <text x="37" y="97">
            <tspan>1 250</tspan>
        </text>
        <text x="37" y="46">
            <tspan>1 500</tspan>
        </text>
    </g>
    <text x="10" class="highcharts-credits" y="400" cursor="default" color="#000" font-size="10">
        <tspan>Quelle: Statistisches Amt Basel-Stadt, Mietpreiserhebung</tspan>
    </text>
</svg>
